!!!!SEGMENT: 074-1-G-011.krn
!!!COM: Fryderyk Chopin
!!!OTL: Dwojaki koniec
!!!OPS: op. 74
!!!PTL: Zbiór śpiewów Polskich z towarzyszeniem fortepianu
!!!PPR: Gebethner
!!!PPP: Warsaw
!!!NIFC-rismID: 300605197
!!!NIFC-shelfmark: PL-Wbfc 963/n
!!!OMD: Allegretto.
!!!OMD: M. M. [quarter] = 100.
!!!system-decoration: (s1){(s2,s3)}
**kern	**kern	**dynam	**kern	**text	**dynam
*part2	*part2	*part2	*part1	*	*
*staff3	*staff2	*	*staff1	*	*
*	*I"PIANO.	*	*I"No. 11. CANTO.	*	*
*clefF4	*clefG2	*	*clefG2	*	*
*k[b-]	*k[b-]	*	*k[b-]	*	*
*d:	*d:	*	*d:	*	*
*M2/4	*M2/4	*	*M2/4	*	*
=1	=1	=1	=1	=1	=1
!LO:TX:a:t=e legato.	!	!	!	!	!
!	!	!LO:DY:rj	!	!	!
4A 4D	4a 4f 4d	p	4a	Rok	.
8AL 8D	8aL 8f 8d	.	8a	się	.
8AJ 8D	8gJ 8e 8d	.	8g	ko-	.
=2	=2	=2	=2	=2	=2
4A 4D	4a 4f 4d	.	4a	cha-	.
4G 4GG	4b- 4g 4d	.	8b-	-li	.
.	.	.	8b-	a	.
=3	=3	=3	=3	=3	=3
!	!	!	!	!	!LO:HP:a
8FFL	8aL 8d 8A<	.	8a	wiek	>
8GG	8g 8e 8B-<	.	8g	się	.
8AA	8f 8d 8A<	.	8f	nie	.
8GJ 8AA	8eJ 8c#X 8A<	.	8e	wi-	]
=4	=4	=4	=4	=4	=4
!	!	!	!	!	!LO:HP:a
4.F 4.D	4.d 4.A<	.	4.f	-dzie-	<
!	!LO:TX:a:t=P:problem:diminuendolike accent	!	!	!	!
8D	8g 8e 8B-^	.	8g	-li	[
=5	=5	=5	=5	=5	=5
4D	4f 4d 4A<	.	4a	Zbo-	.
!	!LO:TX:t=P:złe wyświetlanie akcentu/decrescenda:problem	!	!LO:TX:t=P:złe wyświetlanie akcentu/decrescenda:problem	!	!
8AL 8D	8dd^<L 8f#X 8c	.	8dd^>	la-	.
8DJ	8ccJ 8f# 8c	.	8cc	-ły	.
=6	=6	=6	=6	=6	=6
4G	4b- 4g 4d	.	8ccL	ser-	.
.	.	.	8b-J	.	.
8DL	8aL 8fn 8d	.	8a	-ca	.
8GJ	8b-J 8g 8d	.	8b-	o-	.
!!LO:LB:g=original
=7	=7	=7	=7	=7	=7
*^	*	*	*	*	*
4rdyy	4D	4a 4f 4d	.	(<8aL	-bo-	.
.	.	.	.	16gJk)	.	.
.	.	.	.	16f	-je	.
8dL 8B-	8GGL	4e	.	8e	na	.
8c#XJ 8G	8AAJ	.	.	8f	po-	.
*v	*v	*	*	*	*	*
=8	=8	=8	=8	=8	=8
4.DD	4.d 4.A< 4.F<	.	8dL	-ście-	.
.	.	.	16fL	.	.
.	.	.	16eJJ	.	.
.	.	.	4d	-li.	.
8r	8r	.	.	.	.
=9	=9	=9	=9	=9	=9
!LO:TX:a:t=poco	!	!	!	!	!
4C	8eL 8B-	.	4e	Le-	.
.	8cJ	.	.	.	.
4FF	8fL 8A	<	8f	-ży	.
.	8cJ	.	8f	dziew-	.
=10	=10	=10	=10	=10	=10
*	*^	*	*	*	*
4C	8gL 8e 8B-	4reeyy	.	8gL	-czy-	.
.	8cJ	.	.	16fL	.	.
.	.	.	.	16gJJ	.	.
4F 4FF	4a	8fL 8A	.	8a	-na	.
.	.	8e-XJ	.	8r	.	.
*	*v	*v	*	*	*	*
=11	=11	=11	=11	=11	=11
4F 4BB-	4b- 4d	.	16b-/	W kom-	.
.	.	.	8a	-na-	.
.	.	.	16g	-cie	.
8FL 8BB-	8fL 8d	.	8f	swéy	.
8FJ 8BB-	8gJ 8d-X	.	8g	na	.
=12	=12	=12	=12	=12	=12
2F 2FF	4a 4c	.	4a	ło-	.
.	8fL 8A	>	8a	-żu	.
.	8cJ	.	8r	.	.
!!LO:LB:g=original
=13	=13	=13	=13	=13	=13
!	!	!LO:DY:rj	!	!	!
4AA	8c#X<L 8G<	p	4c#X	A	.
.	8A<J	.	.	.	.
!	!LO:TX:b:t=P:w źródle błąd w druku przy 8d:problem	!	!	!	!
4D	8d<L 8F<	.	8d	ko-	.
.	8A<J	.	8d	-zak	.
=14	=14	=14	=14	=14	=14
!	!	!	!	!	!LO:HP:a
4AA	8eL 8c#X 8G<	.	8eL	le-	<
.	8A<J	.	16dL	.	.
.	.	.	16eJJ	.	[[
4D 4DD	8fL 8d 8F<	.	4f	-ży	.
.	8A<J	.	.	.	.
=15	=15	=15	=15	=15	=15
!	!	!	!	!	!LO:HP:a
4G\ 4GG\	4e 4B-	.	16a	w dą-	>
.	.	.	8g	-bro-	.
.	.	.	16f	-wie	.
8EL< 8AA	8c#XL 8G<	.	8e	na	]]
8EJ 8AA	8c#J 8G<	.	8f	roz-	.
=16	=16	=16	=16	=16	=16
4DD	8dL 8F<	.	(>4d	-dro-	.
.	8fJ 8A<	.	.	.	.
4D	4d 8F<	.	8dd)	-żu	.
.	.	.	8r	.	.
=17	=17	=17	=17	=17	=17
!	!	!LO:DY:rj	!	!	!
4A 4D	4a 4f 4d	p	4a	O!	.
8AL 8D	8aL 8f 8d	.	8a	nad	.
8AJ 8D	8gJ 8e 8d	.	8g	dziew-	.
=18	=18	=18	=18	=18	=18
4A 4D	4a 4f 4d	.	4a	-czy-	.
4G 4GG	4b- 4g 4d	.	8b-	-ną	.
.	.	.	8b-	ro-	.
!!LO:PB:g=original
=19	=19	=19	=19	=19	=19
!	!	!	!	!	!LO:HP:a
8FFL	8aL 8d 8A<	.	8a	-dzi-	>
8GG	8g 8e 8B-<	.	8g	-ny	.
8AA	8f 8d 8A<	.	8f	ca-	.
8GJ 8AA	8eJ 8c#X 8A<	.	8e	-łey	]
=20	=20	=20	=20	=20	=20
!	!	!	!	!	!LO:HP:a
4.F 4.D	4.d 4.A<	.	4.f	pła-	<
!	!LO:TX:a:t=P:problem:diminuendolike accent	!	!	!	!
8D	8g 8e 8B-^	.	8g	-cze;	[
=21	=21	=21	=21	=21	=21
4D	4f 4d 4A<	.	4a	A	.
!	!	!	!	!	!LO:HP:a
!	!LO:TX:t=P:złe wyświetlanie akcentu/decrescenda:problem	!	!LO:TX:t=P:złe wyświetlanie akcentu/decrescenda:problem	!	!
8AL 8D	8ddL 8f#X 8c	>]	8dd	nad	>
8DJ	8ccJ 8f# 8c	.	8cc	ko-	]
=22	=22	=22	=22	=22	=22
4G	4b- 4g 4d	.	8ccL	-za-	.
.	.	.	8b-J	.	.
8DL	8aL 8fn 8d	.	8a	-kiem	.
8GJ	8b-J 8g 8d	.	8b-	och!	.
=23	=23	=23	=23	=23	=23
*^	*	*	*	*	*
4rdyy	4D	4a 4f 4d	.	(<8a	si-	.
.	.	.	.	16gk)	.	.
.	.	.	.	16f	-wy	.
8dL 8B-	8GGL	4e	.	8e	o-	.
8c#XJ 8G	8AAJ	.	.	8f	-rzeł	.
*v	*v	*	*	*	*	*
!!LO:LB:g=original
=24	=24	=24	=24	=24	=24
4.DD	4.d 4.A< 4.F<	.	8dL	kra-	.
.	.	.	16fL	.	.
.	.	.	16eJJ	.	.
.	.	.	4d	-cze.	.
8r	8r	.	.	.	.
=25	=25	=25	=25	=25	=25
!LO:TX:a:t=poco	!	!	!	!	!
4C	8eL 8B-	.	4e	O-	.
.	8cJ	.	.	.	.
4FF	8fL 8A	<	8f	-bo-	.
.	8cJ	.	8f	-je	.
=26	=26	=26	=26	=26	=26
*	*^	*	*	*	*
4C	8gL 8e 8B-	4reeyy	.	8gL	bie-	.
.	8cJ	.	.	16fL	.	.
.	.	.	.	16gJJ	.	.
4F 4FF	4a	8fL 8A	.	8a	-dni,	.
.	.	8e-XJ	.	8r	.	.
*	*v	*v	*	*	*	*
=27	=27	=27	=27	=27	=27
4F 4BB-	4b- 4d	.	16b-/	wnę-	.
.	.	.	8a	-trznoś-	.
.	.	.	16g	-ci	.
8FL 8BB-	8fL 8d	.	8f	o-	.
8FJ 8BB-	8gJ 8d-X	.	8g	-gień	.
=28	=28	=28	=28	=28	=28
2F 2FF	4a 4c	.	4a	pa-	.
.	8fL 8A	>	8a	-li	.
.	8cJ	.	8r	.	.
!!LO:LB:g=original
=29	=29	=29	=29	=29	=29
!	!	!LO:DY:rj	!	!	!
4AA	8c#X<L 8G<	p	4c#X	Cier-	.
.	8A<J	.	.	.	.
4D	8d<L 8F<	.	8d	-pie-	.
.	8A<J	.	8d	-li	.
=30	=30	=30	=30	=30	=30
!	!	!	!	!	!LO:HP:a
4AA	8eL 8c#X 8G<	.	8eL	sro-	<
.	8A<J	.	16dL	.	.
.	.	.	16eJJ	.	[[
4D 4DD	8fL 8d 8F<	.	4f	-dze,	.
.	8A<J	.	.	.	.
=31	=31	=31	=31	=31	=31
!	!	!	!	!	!LO:HP:a
4G 4GG	4e 4B-	.	16a	cier-	>
.	.	.	8g	-pie-	.
.	.	.	16f	-li	.
8E\L 8AA\	8c#XL 8G<	.	8e	i	]]
8EJ 8AA	8c#J 8G<	.	8f	sko-	.
=32	=32	=32	=32	=32	=32
4DD\	8dL 8F<	.	(>4d	-na-	.
.	8f 8A<J	.	.	.	.
4D	4d 4F<	.	8dd)	-li.	.
.	.	.	8r	.	.
=33	=33	=33	=33	=33	=33
!	!	!LO:DY:rj	!	!	!
4A 4D	4a 4f 4d	p	4a	O	.
8AL 8D	8aL 8f 8d	.	8a	nad	.
8AJ 8D	8gJ 8e 8d	.	8g	dziew-	.
!!LO:PB:g=original
=34	=34	=34	=34	=34	=34
!	!	!	!	!LO:TX:a:t=P:w źródle brak kreseczki między dziew- -czy:problem	!
4A 4D	4a 4f 4d	.	4a	-czy-	.
4G 4GG	4b- 4g 4d	.	8b-	-ną	.
.	.	.	8b-	po	.
=35	=35	=35	=35	=35	=35
!	!	!	!	!	!LO:HP:a
8FFL	8aL 8d 8A<	.	8a	sio-	>
8GG	8g 8e 8B-<	.	8g	le	.
8AA	8f 8d 8A<	.	8f	w dzwo-	.
8GJ 8AA	8eJ 8c#X 8A<	.	8e	-ny	]
=36	=36	=36	=36	=36	=36
!	!	!	!	!	!LO:HP:a
4.F 4.D	4.d 4.A<	.	4.f	bi-	<
!	!LO:TX:a:t=P:problem:diminuendolike accent	!	!	!	!
8D	8g 8e 8B-^	.	8g	-ją,	[
=37	=37	=37	=37	=37	=37
4D	4f 4d 4A<	.	4a	A	.
!	!LO:TX:t=P:złe wyświetlanie akcentu/decrescenda:problem	!	!LO:TX:t=P:złe wyświetlanie akcentu/decrescenda:problem	!	!
!	!	!	!	!	!LO:HP:a
8AL 8D	8ddL 8f#X 8c	>]	8dd	nad	>
8DJ	8ccJ 8f# 8c	.	8cc	ko-	]
=38	=38	=38	=38	=38	=38
4G	4b- 4g 4d	.	8ccL	-za	.
.	.	.	8b-J	.	.
8DL	8aL 8fn 8d	.	8a	-kiem	.
8GJ	8b-J 8g 8d	.	8b-/	po	.
!!LO:LB:g=original
=39	=39	=39	=39	=39	=39
*^	*	*	*	*	*
4rdyy	4D	4a 4f 4d	.	(<8a	le-	.
.	.	.	.	16gk)	.	.
.	.	.	.	16f	-sie	.
8dL 8B-	8GGL	4e	.	8e	wiel-	.
8c#XJ 8G	8AAJ	.	.	8f	-ki	.
*v	*v	*	*	*	*	*
=40	=40	=40	=40	=40	=40
4.DD	4.d 4.A< 4.F<	.	8dL	wy-	.
.	.	.	16fL	.	.
.	.	.	16eJJ	.	.
.	.	.	4d	-ją.	.
8r	8r	.	.	.	.
=41	=41	=41	=41	=41	=41
!LO:TX:a:t=poco	!	!	!	!	!
4C	8eL 8B-	.	4e	Ko-	.
.	8cJ	.	.	.	.
4FF	8fL 8A	<	8f	-ści	.
.	8cJ	.	8f	dziew-	.
=42	=42	=42	=42	=42	=42
*	*^	*	*	*	*
4C	8gL 8e 8B-	4ryy	.	8gL	-czy-	.
.	8cJ	.	.	16fL	.	.
.	.	.	.	16gJJ	.	.
4F 4FF	4a 4f	8AL	.	8a	-ny	.
.	.	8e-XJ	.	8r	.	.
*	*v	*v	*	*	*	*
=43	=43	=43	=43	=43	=43
4F 4BB-	4b- 4d	.	16b-/	grób	.
.	.	.	8a	zam-	.
.	.	.	16g	-knął	.
8FL 8BB-	8fL 8d	.	8f	po-	.
8FJ 8BB-	8gJ 8d-X	.	8g	-świę-	.
!!LO:LB:g=original
=44	=44	=44	=44	=44	=44
2F 2FF	4a 4c	.	4a	-co-	.
.	8fL 8A	>	8a	-ny	.
.	8cJ	.	8r	.	.
=45	=45	=45	=45	=45	=45
!	!	!LO:DY:rj	!	!	!
4AA	8c#X<L 8G<	p	4c#X	ko-	.
.	8A<J	.	.	.	.
4D	8d<L 8F<	.	8d	-ści	.
.	8A<J	.	8d	ko-	.
=46	=46	=46	=46	=46	=46
!	!	!	!	!	!LO:HP:a
4AA	8eL 8c#X 8G<	.	8eL	-za-	<
.	8A<J	.	16dL	.	.
.	.	.	16eJJ	.	.
4D 4DD	8fL 8d 8F<	.	8f	-ka	.
.	8A<J	.	8r	.	[
=47	=47	=47	=47	=47	=47
!	!	!	!	!	!LO:HP:a
4G 4GG\	4e 4B-	.	16a	bie-	>
.	.	.	8g	-le-	.
.	.	.	16f	-ją	.
8EL< 8AA	8c#XL 8G<	.	8e	na	]]
8EJ 8AA	8c# 8G<J	.	8f	wsze	.
=48	=48	=48	=48	=48	=48
4DD	8dL 8F<	.	(>4d	stro-	.
.	8f 8A<J	.	.	.	.
4D	4d 8F<	.	8dd)	-ny.	.
.	.	.	8r	.	.
==	==	==	==	==	==
*-	*-	*-	*-	*-	*-
!!title: @{OTL}; @{OPS} @{ONM} publisher: @{PPR}
!!!RDF**kern: > = above
!!!RDF**kern: < = below
!!!RDF**dynam: < = "cresc.", 'fontstyle="normal"
!!!RDF**dynam: > = "dim.", 'fontstyle="normal"
!!!ENC: Antoni Szymański
!!!END: 2019-08-26
!!!EED: Wojciech Jakubiak-Danek
!!!EST: 2019-10-21
!!!rism-genre: Dwojaki koniec
!!!rism-key: D minor
!!!rism-opus: op.  74, no. 11
!!!rism-title: La double fin in D minor op.  74, no. 11
!!!rism-permalink: https://opac.rism.info/search?id=300605197&View=rism
!!!rism-773a-OPR: 300605186
!!!rism-parent-permalink: https://opac.rism.info/search?id=300605186&View=rism
